public/send-comment.svg

<?xml version="1.0" encoding="UTF-8" standalone="no"?>
<!DOCTYPE svg PUBLIC "-//W3C//DTD SVG 1.1//EN" "http://www.w3.org/Graphics/SVG/1.1/DTD/svg11.dtd">
<!-- Created with Vectornator (http://vectornator.io/) -->
<svg height="100%" stroke-miterlimit="10" style="fill-rule:nonzero;clip-rule:evenodd;stroke-linecap:round;stroke-linejoin:round;" version="1.1" viewBox="0 0 24 24" width="100%" xml:space="preserve" xmlns="http://www.w3.org/2000/svg" xmlns:vectornator="http://vectornator.io" xmlns:xlink="http://www.w3.org/1999/xlink">
<defs/>
<g id="Untitled" vectornator:layerName="Untitled">
<path d="M11.4175 12.0034L3.39791 12.0034M3.1706 13.0546L1.84566 17.0125C1.11999 19.1801 0.75716 20.2639 1.01754 20.9313C1.24366 21.511 1.72931 21.9503 2.32858 22.1177C3.01865 22.3102 4.06093 21.8412 6.14548 20.9032L19.5094 14.8894C21.5441 13.9737 22.5614 13.516 22.8758 12.88C23.149 12.3275 23.149 11.6791 22.8758 11.1266C22.5614 10.4907 21.5441 10.0329 19.5094 9.11725L6.12243 3.09315C4.04415 2.15794 3.00503 1.69032 2.31564 1.88215C1.71694 2.04874 1.23134 2.487 1.00444 3.06554C0.743156 3.73171 1.10211 4.81319 1.82003 6.97615L3.17317 11.053C3.29647 11.4245 3.35813 11.6103 3.38246 11.8001C3.40406 11.9688 3.40383 12.1394 3.38181 12.308C3.35698 12.4979 3.29486 12.6834 3.1706 13.0546Z" fill="none" opacity="1" stroke="#000000" stroke-linecap="round" stroke-linejoin="round" stroke-width="1.5" vectornator:layerName="path"/>
</g>
</svg>

<svg xmlns="http://www.w3.org/2000/svg" xmlns:vectornator="http://vectornator.io" xml:space="preserve" stroke-miterlimit="10" style="fill-rule:nonzero;clip-rule:evenodd;stroke-linecap:round;stroke-linejoin:round" viewBox="0 0 24 24"><g vectornator:layerName="Untitled"><path vectornator:layerName="path" fill="none" stroke="#000" stroke-width="1.5" d="M11.418 12.003h-8.02m-.227 1.052-1.325 3.957c-.726 2.168-1.089 3.252-.828 3.92.226.579.711 1.018 1.31 1.186.69.192 1.733-.277 3.817-1.215L19.51 14.89c2.035-.915 3.052-1.373 3.367-2.009.273-.553.273-1.2 0-1.753-.315-.636-1.332-1.094-3.367-2.01L6.122 3.093c-2.078-.935-3.117-1.403-3.806-1.21a1.978 1.978 0 0 0-1.312 1.183c-.26.666.098 1.747.816 3.91l1.353 4.077c.123.371.185.557.21.747.021.169.02.34-.001.508-.025.19-.087.375-.211.747Z"/></g></svg>
